X:643
T: Dawushan gaoyuogao
N: C2167
O: China, Hubei Dawu
S: I, 425]
R: Xiaodiao, Dengdiao, Qiacaitaidiao huatiao]
M: 2/4
L: 1/16
K: G
dedBA4 | dedBA4 | A2d2BAG2 | A3BA4 |
G3Ad2B2 | G3Ad2B2 | GABGA4 | A2G2G2E4G2 | A3ED4

